svg/slack.svg

<?xml version="1.0" encoding="UTF-8"?>
<svg xmlns="http://www.w3.org/2000/svg" xmlns:xlink="http://www.w3.org/1999/xlink" width="32" height="32" viewBox="0 0 32 32">
<path fill-rule="evenodd" fill="rgb(87.843137%, 11.764706%, 35.294118%)" fill-opacity="1" stroke-width="1.743" stroke-linecap="round" stroke-linejoin="round" stroke="rgb(87.843137%, 11.764706%, 35.294118%)" stroke-opacity="1" stroke-miterlimit="4" d="M 9.152344 19.890625 C 9.152344 18.113281 10.496094 16.683594 12.164062 16.683594 C 13.835938 16.683594 15.175781 18.113281 15.175781 19.890625 L 15.175781 27.78125 C 15.175781 29.558594 13.835938 30.988281 12.164062 30.988281 C 10.496094 30.988281 9.152344 29.558594 9.152344 27.78125 Z M 9.152344 19.890625 "/>
<path fill-rule="evenodd" fill="rgb(92.54902%, 69.803922%, 17.647059%)" fill-opacity="1" stroke-width="1.743" stroke-linecap="round" stroke-linejoin="round" stroke="rgb(92.54902%, 69.803922%, 17.647059%)" stroke-opacity="1" stroke-miterlimit="4" d="M 19.890625 22.707031 C 18.113281 22.707031 16.683594 21.363281 16.683594 19.695312 C 16.683594 18.027344 18.113281 16.683594 19.890625 16.683594 L 27.78125 16.683594 C 29.558594 16.683594 30.988281 18.027344 30.988281 19.695312 C 30.988281 21.363281 29.558594 22.707031 27.78125 22.707031 Z M 19.890625 22.707031 "/>
<path fill-rule="evenodd" fill="rgb(18.431373%, 71.372549%, 48.627451%)" fill-opacity="1" stroke-width="1.743" stroke-linecap="round" stroke-linejoin="round" stroke="rgb(18.431373%, 71.372549%, 48.627451%)" stroke-opacity="1" stroke-miterlimit="4" d="M 16.683594 4.078125 C 16.683594 2.300781 18.027344 0.871094 19.695312 0.871094 C 21.363281 0.871094 22.707031 2.300781 22.707031 4.078125 L 22.707031 11.972656 C 22.707031 13.746094 21.363281 15.175781 19.695312 15.175781 C 18.027344 15.175781 16.683594 13.746094 16.683594 11.972656 Z M 16.683594 4.078125 "/>
<path fill-rule="evenodd" fill="rgb(21.176471%, 77.254902%, 94.509804%)" fill-opacity="1" stroke-width="1.743" stroke-linecap="round" stroke-linejoin="round" stroke="rgb(21.176471%, 77.254902%, 94.509804%)" stroke-opacity="1" stroke-miterlimit="4" d="M 4.078125 15.175781 C 2.300781 15.175781 0.871094 13.835938 0.871094 12.164062 C 0.871094 10.496094 2.300781 9.152344 4.078125 9.152344 L 11.972656 9.152344 C 13.746094 9.152344 15.175781 10.496094 15.175781 12.164062 C 15.175781 13.835938 13.746094 15.175781 11.972656 15.175781 Z M 4.078125 15.175781 "/>
<path fill-rule="evenodd" fill="rgb(92.54902%, 69.803922%, 17.647059%)" fill-opacity="1" stroke-width="1.743" stroke-linecap="round" stroke-linejoin="miter" stroke="rgb(92.54902%, 69.803922%, 17.647059%)" stroke-opacity="1" stroke-miterlimit="4" d="M 16.683594 27.976562 C 16.683594 29.640625 18.03125 30.988281 19.695312 30.988281 C 21.359375 30.988281 22.707031 29.640625 22.707031 27.976562 C 22.707031 27.175781 22.390625 26.410156 21.828125 25.84375 C 21.261719 25.28125 20.496094 24.964844 19.695312 24.964844 L 16.683594 24.964844 Z M 16.683594 27.976562 "/>
<path fill-rule="evenodd" fill="rgb(18.431373%, 71.372549%, 48.627451%)" fill-opacity="1" stroke-width="1.743" stroke-linecap="round" stroke-linejoin="miter" stroke="rgb(18.431373%, 71.372549%, 48.627451%)" stroke-opacity="1" stroke-miterlimit="4" d="M 27.976562 15.175781 L 24.964844 15.175781 L 24.964844 12.164062 C 24.964844 11.363281 25.28125 10.597656 25.84375 10.03125 C 27.023438 8.859375 28.929688 8.859375 30.109375 10.03125 C 31.28125 11.210938 31.28125 13.117188 30.109375 14.296875 C 29.542969 14.863281 28.777344 15.179688 27.976562 15.175781 Z M 27.976562 15.175781 "/>
<path fill-rule="evenodd" fill="rgb(87.843137%, 11.764706%, 35.294118%)" fill-opacity="1" stroke-width="1.743" stroke-linecap="round" stroke-linejoin="miter" stroke="rgb(87.843137%, 11.764706%, 35.294118%)" stroke-opacity="1" stroke-miterlimit="4" d="M 3.882812 16.683594 L 6.894531 16.683594 L 6.894531 19.695312 C 6.894531 20.496094 6.578125 21.261719 6.015625 21.828125 C 4.835938 23 2.929688 23 1.75 21.828125 C 1.183594 21.261719 0.867188 20.496094 0.871094 19.695312 C 0.871094 18.894531 1.1875 18.128906 1.75 17.5625 C 2.316406 17 3.085938 16.683594 3.882812 16.683594 Z M 3.882812 16.683594 "/>
<path fill-rule="evenodd" fill="rgb(21.176471%, 77.254902%, 94.509804%)" fill-opacity="1" stroke-width="1.743" stroke-linecap="round" stroke-linejoin="miter" stroke="rgb(21.176471%, 77.254902%, 94.509804%)" stroke-opacity="1" stroke-miterlimit="4" d="M 15.175781 3.882812 L 15.175781 6.894531 L 12.164062 6.894531 C 11.363281 6.894531 10.597656 6.578125 10.03125 6.015625 C 9.46875 5.449219 9.152344 4.683594 9.152344 3.882812 C 9.148438 3.082031 9.464844 2.316406 10.03125 1.75 C 10.597656 1.183594 11.363281 0.867188 12.164062 0.871094 C 12.964844 0.867188 13.730469 1.183594 14.296875 1.75 C 14.863281 2.3125 15.179688 3.082031 15.175781 3.882812 Z M 15.175781 3.882812 "/>
</svg>

<svg role="img" viewBox="0 0 32 32" height="32" width="32" xmlns="http://www.w3.org/2000/svg"><path d="M9.152 19.89c0-1.777 1.344-3.206 3.012-3.206 1.672 0 3.012 1.43 3.012 3.207v7.89c0 1.778-1.34 3.207-3.012 3.207-1.668 0-3.012-1.43-3.012-3.207Zm0 0" fill="rgb(87.843137%, 11.764706%, 35.294118%)" fill-rule="evenodd" stroke="rgb(87.843137%, 11.764706%, 35.294118%)" stroke-linecap="round" stroke-linejoin="round" stroke-width="1.743"/><path d="M19.89 22.707c-1.777 0-3.206-1.344-3.206-3.012s1.43-3.011 3.207-3.011h7.89c1.778 0 3.207 1.343 3.207 3.011 0 1.668-1.43 3.012-3.207 3.012Zm0 0" fill="rgb(92.54902%, 69.803922%, 17.647059%)" fill-rule="evenodd" stroke="rgb(92.54902%, 69.803922%, 17.647059%)" stroke-linecap="round" stroke-linejoin="round" stroke-width="1.743"/><path d="M16.684 4.078c0-1.777 1.343-3.207 3.011-3.207 1.668 0 3.012 1.43 3.012 3.207v7.895c0 1.773-1.344 3.203-3.012 3.203s-3.011-1.43-3.011-3.203Zm0 0" fill="rgb(18.431373%, 71.372549%, 48.627451%)" fill-rule="evenodd" stroke="rgb(18.431373%, 71.372549%, 48.627451%)" stroke-linecap="round" stroke-linejoin="round" stroke-width="1.743"/><path d="M4.078 15.176c-1.777 0-3.207-1.34-3.207-3.012 0-1.668 1.43-3.012 3.207-3.012h7.895c1.773 0 3.203 1.344 3.203 3.012 0 1.672-1.43 3.012-3.203 3.012Zm0 0" fill="rgb(21.176471%, 77.254902%, 94.509804%)" fill-rule="evenodd" stroke="rgb(21.176471%, 77.254902%, 94.509804%)" stroke-linecap="round" stroke-linejoin="round" stroke-width="1.743"/><path d="M16.684 27.977a3.01 3.01 0 1 0 6.023 0c0-.801-.316-1.567-.879-2.133a3.025 3.025 0 0 0-2.133-.88h-3.011Zm0 0" fill="rgb(92.54902%, 69.803922%, 17.647059%)" fill-rule="evenodd" stroke="rgb(92.54902%, 69.803922%, 17.647059%)" stroke-linecap="round" stroke-width="1.743"/><path d="M27.977 15.176h-3.012v-3.012c0-.8.316-1.566.879-2.133a3.027 3.027 0 0 1 4.265 0 3.027 3.027 0 0 1 0 4.266 2.992 2.992 0 0 1-2.132.879Zm0 0" fill="rgb(18.431373%, 71.372549%, 48.627451%)" fill-rule="evenodd" stroke="rgb(18.431373%, 71.372549%, 48.627451%)" stroke-linecap="round" stroke-width="1.743"/><path d="M3.883 16.684h3.012v3.011c0 .801-.317 1.567-.88 2.133a3.027 3.027 0 0 1-4.265 0 2.992 2.992 0 0 1-.879-2.133c0-.8.317-1.566.879-2.133a3.032 3.032 0 0 1 2.133-.878Zm0 0" fill="rgb(87.843137%, 11.764706%, 35.294118%)" fill-rule="evenodd" stroke="rgb(87.843137%, 11.764706%, 35.294118%)" stroke-linecap="round" stroke-width="1.743"/><path d="M15.176 3.883v3.012h-3.012c-.8 0-1.566-.317-2.133-.88a3.025 3.025 0 0 1-.879-2.132 2.99 2.99 0 0 1 .88-2.133 2.992 2.992 0 0 1 2.132-.879c.8-.004 1.566.313 2.133.879.566.563.883 1.332.879 2.133Zm0 0" fill="rgb(21.176471%, 77.254902%, 94.509804%)" fill-rule="evenodd" stroke="rgb(21.176471%, 77.254902%, 94.509804%)" stroke-linecap="round" stroke-width="1.743"/></svg>
